<?xml version="1.0" encoding="UTF-8"?>
<map version="1.10" tiledversion="1.10.2" orientation="orthogonal" renderorder="right-down" width="32" height="18" tilewidth="16" tileheight="16" infinite="0" nextlayerid="7" nextobjectid="1">
 <tileset firstgid="1" source="tilesets_edit/Terrain.tsx"/>
 <tileset firstgid="1441" source="tilesets_edit/plants.tsx"/>
 <tileset firstgid="1681" source="tilesets_edit/9_beach.tsx"/>
 <layer id="1" name="sand" width="32" height="18">
  <data encoding="csv">
644,644,644,644,644,644,644,644,644,644,644,614,0,0,0,0,0,0,0,0,0,0,0,0,0,0,0,63,1587,1588,0,0,
644,644,644,644,644,644,644,644,644,644,644,614,614,614,0,0,0,0,0,0,0,0,0,0,0,0,0,93,1617,1618,0,0,
644,644,644,644,644,644,644,644,644,644,644,644,644,644,644,0,0,0,0,0,0,0,0,0,0,0,0,63,63,64,93,94,
644,644,644,644,644,644,644,644,644,644,644,644,644,644,644,0,0,0,0,0,0,0,0,0,0,0,0,0,0,0,0,0,
644,644,644,644,644,644,644,644,644,644,644,644,644,644,644,614,0,0,0,0,0,0,0,0,0,0,0,0,0,0,0,0,
644,644,644,644,644,644,644,644,644,644,644,644,644,644,644,614,0,0,0,0,0,0,0,0,0,0,0,0,0,0,0,0,
644,644,644,644,644,644,644,644,644,644,644,644,644,644,644,614,0,0,0,0,0,0,0,0,0,0,0,0,0,0,0,0,
644,644,644,644,644,644,644,644,644,644,644,644,644,644,644,644,614,0,0,0,0,0,0,0,0,0,0,0,0,0,0,0,
644,644,644,644,644,644,644,644,644,644,644,644,644,644,644,644,614,0,0,0,0,0,0,0,0,0,0,0,0,0,0,0,
644,644,644,644,644,644,644,644,644,644,644,644,644,644,644,644,614,0,0,0,0,0,0,0,0,0,0,0,0,0,0,0,
644,644,644,644,644,644,644,644,644,644,644,644,644,644,644,644,644,644,0,0,0,0,0,0,0,0,0,0,0,0,0,0,
644,644,644,644,644,644,644,644,644,644,644,644,644,644,644,644,644,644,614,614,0,0,0,0,0,0,0,0,0,0,0,0,
644,644,644,644,644,644,644,644,644,644,644,644,644,644,644,644,644,644,614,614,0,0,0,0,0,0,0,0,0,0,0,0,
644,644,644,644,644,644,644,644,644,644,644,644,644,644,644,644,644,644,614,614,614,614,0,0,0,0,0,0,0,0,0,0,
644,644,644,644,644,644,644,644,644,644,644,644,644,644,644,644,644,644,614,614,614,614,0,0,0,0,0,0,0,0,0,0,
644,644,644,644,644,644,644,644,644,644,644,644,644,644,644,644,644,644,644,644,614,614,614,0,0,0,0,0,0,0,0,0,
644,644,644,644,644,644,644,644,644,644,644,644,644,644,644,644,644,644,644,644,614,614,614,0,0,0,0,0,0,0,0,0,
644,644,644,644,644,644,644,644,644,644,644,644,644,644,644,644,644,644,644,644,614,614,614,614,614,614,0,0,0,0,0,0
</data>
 </layer>
 <layer id="2" name="ocean" width="32" height="18">
  <data encoding="csv">
613,614,613,614,613,614,613,614,613,614,613,645,423,424,423,423,423,424,423,424,423,424,423,423,424,423,425,426,63,64,63,64,
643,644,643,644,643,644,643,644,643,644,643,712,583,585,453,453,453,454,453,454,453,454,453,453,454,453,455,456,93,94,93,94,
613,614,613,614,613,614,613,614,613,614,613,613,614,613,585,423,423,424,423,424,423,424,423,423,424,423,389,390,363,364,93,94,
643,644,643,644,643,644,643,644,643,644,643,643,644,643,645,453,453,454,453,454,453,454,453,453,454,453,419,420,393,394,453,454,
613,614,613,614,613,614,613,614,613,614,613,613,614,613,712,585,423,424,423,424,423,424,423,423,424,423,423,424,423,424,423,424,
643,644,643,644,643,644,643,644,643,644,643,643,644,643,613,615,453,454,453,454,453,454,453,453,454,453,453,454,453,454,453,454,
613,614,613,614,613,614,613,614,613,614,613,613,614,613,643,645,423,424,423,424,423,424,423,423,424,423,423,424,423,424,423,424,
643,644,643,644,643,644,643,644,643,644,643,643,644,643,613,712,585,423,424,423,424,423,424,453,454,453,453,454,453,454,453,454,
613,614,613,614,613,614,613,614,613,614,613,613,614,613,643,613,645,453,454,453,454,453,454,423,424,423,423,424,423,424,423,424,
643,644,643,644,643,644,643,644,643,644,643,643,644,643,613,643,615,423,424,423,424,423,424,453,454,453,453,454,453,454,453,454,
613,614,613,614,613,614,613,614,613,614,613,613,614,613,643,613,712,585,423,424,423,424,423,423,424,423,423,424,423,424,423,424,
643,644,643,644,643,644,643,644,643,644,643,643,644,643,613,643,613,712,584,585,423,424,423,453,454,453,453,454,453,454,453,454,
613,614,613,614,613,614,613,614,613,614,613,613,614,613,643,613,643,613,614,645,453,454,453,423,424,423,423,424,423,424,423,424,
643,644,643,644,643,644,643,644,643,644,643,643,644,643,613,643,613,643,644,712,583,585,423,453,454,453,453,454,453,454,453,454,
613,614,613,614,613,614,613,614,613,614,613,613,614,613,643,613,643,613,614,613,614,645,453,423,424,423,423,424,423,424,423,424,
643,644,643,644,643,644,643,644,643,644,643,643,644,643,613,643,613,643,644,643,644,712,585,453,454,453,453,454,453,454,453,454,
613,614,613,614,613,614,613,614,613,614,613,613,614,613,643,613,643,613,614,613,614,613,645,423,424,423,423,424,423,424,423,424,
643,644,643,644,643,644,643,644,643,644,643,643,644,643,613,643,613,643,644,643,644,643,712,583,584,585,453,454,453,454,453,454
</data>
 </layer>
 <layer id="4" name="plants" width="32" height="18">
  <data encoding="csv">
1689,1690,1691,1692,0,0,0,0,0,0,0,0,0,0,0,0,0,0,0,0,0,0,0,0,0,0,0,0,1587,1588,1459,1460,
1707,1708,1709,1710,0,0,0,0,0,0,0,0,0,0,0,0,0,0,0,0,0,0,0,0,0,0,0,0,1617,1618,1489,1490,
1725,1726,1727,1728,0,0,0,0,0,0,0,0,0,0,0,0,0,0,0,0,0,0,0,0,0,0,0,0,0,0,0,0,
1743,1744,1745,1746,0,0,1685,1686,1687,1688,0,0,0,0,0,0,0,0,0,0,0,0,0,0,0,0,0,0,0,0,0,0,
0,0,0,0,0,0,1703,1704,1705,1706,1791,1792,0,0,0,0,0,0,0,0,0,0,0,0,0,0,0,0,0,0,0,0,
0,0,0,0,0,0,1721,1722,1723,1724,1809,1810,0,0,0,0,0,0,0,0,0,0,0,0,0,0,0,0,0,0,0,0,
0,0,0,0,0,0,1739,1740,1741,1742,0,1793,1794,0,0,0,0,0,0,0,0,0,0,0,0,0,0,0,0,0,0,0,
0,0,1499,0,0,0,1757,1758,1759,1760,0,1811,1812,0,0,0,0,0,0,0,0,0,0,0,0,0,0,0,0,0,0,0,
0,0,0,0,0,0,1775,1776,1777,1778,0,0,0,0,0,0,0,0,0,0,0,0,0,0,0,0,0,0,0,0,0,0,
0,0,0,0,0,0,1499,1499,0,1791,1792,0,1793,1794,0,0,0,0,0,0,0,0,0,0,0,0,0,0,0,0,0,0,
0,0,0,0,0,0,1499,1499,0,1809,1810,0,1811,1812,0,0,0,0,0,0,0,0,0,0,0,0,0,0,0,0,0,0,
0,0,0,0,0,0,0,0,0,0,0,0,0,0,0,0,0,0,0,0,0,0,0,0,0,0,0,0,0,0,0,0,
0,0,0,0,0,0,0,0,0,0,0,0,0,0,0,0,0,0,0,0,0,0,0,0,0,0,0,0,0,0,0,0,
0,0,0,0,0,0,0,0,0,0,0,0,0,0,0,0,0,0,0,0,0,0,0,0,0,0,0,0,0,0,0,0,
0,0,0,0,0,0,0,0,0,0,0,0,0,0,0,0,0,0,0,0,0,0,0,0,0,0,0,0,0,0,0,0,
0,0,0,0,0,0,0,0,0,0,0,0,0,0,0,0,0,0,0,0,0,0,0,0,0,0,0,0,0,0,0,0,
0,0,0,0,0,0,0,0,0,0,0,0,0,0,0,0,0,0,0,0,0,0,0,0,0,0,0,0,0,0,0,0,
0,0,0,0,0,0,0,0,0,0,0,0,0,0,0,0,0,0,0,0,0,0,0,0,0,0,0,0,0,0,0,0
</data>
 </layer>
 <layer id="5" name="plants2" width="32" height="18">
  <data encoding="csv">
0,0,0,0,0,0,0,0,1689,1690,1691,1692,1871,1872,1871,1871,1871,1872,0,0,0,0,0,0,0,0,0,1465,1466,0,1459,1460,
0,0,0,0,1685,1686,1687,1688,1707,1708,1709,1710,0,0,1889,1889,1889,1890,0,0,0,0,0,0,0,0,0,1495,1496,0,1489,1490,
0,0,0,0,1703,1704,1705,1706,1725,1726,1727,1728,0,0,0,1871,1871,1872,1871,1871,0,0,0,0,0,0,0,0,0,0,0,0,
0,0,0,0,1721,1722,1723,1724,1743,1744,1745,1746,0,0,0,1889,1889,1871,1872,1871,1872,0,0,0,0,0,0,0,0,0,0,0,
0,0,0,0,1739,1740,1741,1742,0,0,0,0,0,0,0,0,1871,1889,1890,1889,1890,0,0,0,0,0,0,0,0,0,0,0,
1681,1682,1683,1684,1757,1758,1759,1760,0,0,0,0,0,0,0,0,1889,1871,1872,1871,1872,0,0,0,0,0,0,0,0,0,0,0,
1699,1700,1701,1702,1775,1776,1777,1778,0,0,1791,1792,0,0,0,0,1871,1889,1890,1889,1890,1871,0,0,0,0,0,0,0,0,0,0,
1717,1718,1719,1720,0,1681,1682,1683,1684,0,1809,1810,0,0,0,0,0,1889,1889,1871,1872,1871,1872,0,0,0,0,0,0,0,0,0,
1735,1736,1737,1738,0,1699,1700,1701,1702,0,1793,1794,1791,1792,0,0,0,1871,1871,1889,1890,1889,1890,0,0,0,0,0,0,0,0,0,
1753,1754,1755,1756,0,1717,1718,1719,1720,0,1811,1812,1809,1810,0,0,0,1889,1889,1871,1872,1871,1872,1871,0,0,0,0,0,0,0,0,
0,0,0,0,0,1735,1736,1737,1738,0,0,0,0,0,0,0,0,0,1889,1889,1890,1889,1890,1871,0,0,0,0,0,0,0,0,
0,1685,1686,1687,1688,1753,1754,1755,1756,0,0,0,0,0,0,0,0,0,0,0,1871,1872,1871,1872,1871,1871,1871,0,0,0,0,0,
0,1703,1704,1705,1706,0,0,0,0,0,0,0,0,0,0,0,0,0,0,0,1889,1890,1889,1890,1889,1871,1872,1871,0,0,0,0,
0,1721,1722,1723,1724,0,0,0,0,0,0,0,0,0,0,0,0,0,0,0,0,0,1871,1872,1871,1872,1871,1872,1871,0,0,0,
0,1739,1740,1741,1742,0,0,0,0,0,0,0,0,0,0,0,0,0,0,0,0,0,1871,1871,1889,1890,1889,1890,1889,0,0,0,
0,1757,1758,1759,1760,0,0,0,0,0,0,0,0,0,0,0,0,0,0,0,0,0,0,1889,1871,1872,1871,1872,1871,1872,0,0,
0,1775,1776,1777,1778,0,0,0,0,0,0,0,0,0,0,0,0,0,0,0,0,0,0,1871,1889,1890,1889,1890,1889,1890,0,0,
0,0,0,0,0,0,0,0,0,0,0,0,0,0,0,0,0,0,0,0,0,0,0,0,0,0,1871,1872,1871,1872,0,0
</data>
 </layer>
 <layer id="6" name="fruits" width="32" height="18">
  <data encoding="csv">
0,0,0,0,0,0,0,0,0,0,0,0,0,0,0,0,0,0,0,0,0,0,0,0,0,0,0,0,0,0,1459,1460,
0,0,0,0,0,0,0,0,0,0,0,0,0,0,0,0,0,0,0,0,0,0,0,0,0,0,0,0,0,0,1489,1490,
0,0,0,0,0,0,0,0,0,0,0,0,0,0,0,0,0,0,0,0,0,0,0,0,0,0,0,0,0,0,363,364,
0,0,0,0,0,1499,0,0,0,0,0,0,0,0,0,0,0,0,0,0,0,0,0,0,0,0,0,0,0,0,393,394,
0,0,0,0,0,0,0,0,0,0,1585,0,0,0,0,0,0,0,0,0,0,0,0,0,0,0,0,0,0,0,0,0,
0,0,0,0,0,0,0,0,1470,0,0,0,1585,0,0,0,0,0,0,0,0,0,0,0,0,0,0,0,0,0,0,0,
0,0,0,0,0,0,0,0,0,0,1585,0,0,0,0,0,0,0,0,0,0,0,0,0,0,0,0,0,0,0,0,0,
0,1499,0,0,0,0,0,0,0,0,0,0,0,0,0,0,0,0,0,0,0,0,0,0,0,0,0,0,0,0,0,0,
0,0,0,0,0,0,0,0,0,0,0,0,1585,0,0,0,0,0,0,0,0,0,0,0,0,0,0,0,0,0,0,0,
0,0,0,1525,1526,0,0,1499,0,0,0,0,0,0,0,0,0,0,0,0,0,0,0,0,0,0,0,0,0,0,0,0,
0,0,0,1555,1556,0,0,0,0,1585,0,0,0,0,0,0,0,0,0,0,0,0,0,0,0,0,0,0,0,0,0,0,
0,0,0,0,0,0,0,0,0,1525,1526,0,0,0,0,0,0,0,0,0,0,0,0,0,0,0,0,0,0,0,0,0,
0,0,0,0,0,0,0,0,0,1555,1556,0,0,0,0,0,0,0,0,0,0,0,0,0,0,0,0,0,0,0,0,0,
0,0,1470,0,0,0,0,0,0,0,0,0,0,0,0,0,0,0,0,0,0,0,0,0,0,0,0,0,0,0,0,0,
0,0,0,0,0,0,0,0,0,0,0,0,0,0,0,0,0,0,0,0,0,0,0,0,0,0,0,0,0,0,0,0,
0,0,0,0,0,0,0,0,0,0,0,0,0,0,0,0,0,0,0,0,0,0,0,0,0,0,0,0,0,0,0,0,
0,0,0,0,0,0,0,0,0,0,0,0,0,0,0,0,0,0,0,0,0,0,0,0,0,0,0,0,0,0,0,0,
0,0,0,0,0,0,0,0,0,0,0,0,0,0,0,0,0,0,0,0,0,0,0,0,0,0,0,0,0,0,0,0
</data>
 </layer>
</map>
