<?xml version="1.0" encoding="UTF-8"?>
<map version="1.10" tiledversion="1.10.2" orientation="orthogonal" renderorder="right-down" width="32" height="18" tilewidth="16" tileheight="16" infinite="0" nextlayerid="5" nextobjectid="15">
 <tileset firstgid="1" source="../tiles/8_cave.tsx"/>
 <layer id="2" name="floor" width="32" height="18">
  <data encoding="csv">
32,33,34,35,32,33,34,35,32,33,34,35,32,33,34,35,32,33,34,35,32,33,34,35,32,33,34,35,32,33,34,35,
60,61,62,63,60,61,62,63,60,61,62,63,60,61,62,63,60,61,62,63,60,61,62,63,60,61,62,63,60,61,62,63,
88,89,90,91,88,89,90,91,88,89,90,91,88,89,90,91,88,89,90,91,88,89,90,91,88,89,90,91,88,89,90,91,
116,117,118,119,116,117,118,119,116,117,118,119,116,117,118,119,116,117,118,119,116,117,118,119,116,117,118,119,116,117,118,119,
144,145,146,147,144,145,146,147,144,145,146,147,144,145,146,147,144,145,146,147,144,145,146,147,144,145,146,147,144,145,146,147,
88,89,90,91,88,89,90,91,32,33,34,35,88,89,90,91,32,33,34,35,88,89,90,91,32,33,34,35,116,117,118,119,
116,117,118,119,116,117,118,119,60,61,62,63,116,117,118,119,60,61,62,63,116,117,118,119,60,61,62,63,144,145,146,147,
144,145,146,147,144,145,146,147,88,89,90,91,144,145,146,147,88,89,90,91,144,145,146,147,88,89,90,91,32,33,34,35,
32,33,34,35,32,33,34,35,116,117,118,119,32,33,34,35,116,117,118,119,32,33,34,35,32,33,34,35,60,61,62,63,
60,61,62,63,60,61,62,63,144,145,146,147,60,61,62,63,144,145,146,147,60,61,62,63,60,61,62,63,88,89,90,91,
88,89,90,91,88,89,90,91,32,33,34,35,88,89,90,91,32,33,34,35,88,89,90,91,88,89,90,91,116,117,118,119,
116,117,118,119,116,117,118,119,60,61,62,63,116,117,118,119,60,61,62,63,116,117,118,119,116,117,118,119,144,145,146,147,
144,145,146,147,144,145,146,147,32,33,34,35,144,145,146,147,88,89,90,91,144,145,146,147,144,145,146,147,32,33,34,35,
32,33,34,35,32,33,34,35,32,33,34,35,32,33,34,35,32,33,34,35,33,34,35,32,33,34,35,32,32,33,34,35,
60,61,62,63,60,61,62,63,60,61,62,63,60,61,62,63,60,61,62,63,61,62,63,60,61,62,63,60,60,61,62,63,
88,89,90,91,88,89,90,91,88,89,90,91,88,89,90,91,88,89,90,91,89,90,91,88,89,90,91,88,88,89,90,91,
116,117,118,119,116,117,118,119,116,117,118,119,116,117,118,119,116,117,118,119,117,118,119,116,117,118,119,116,116,117,118,119,
144,145,146,147,144,145,146,147,144,145,146,147,144,145,146,147,144,145,146,147,145,146,147,144,145,146,147,144,144,145,146,147
</data>
 </layer>
 <layer id="1" name="Tile Layer 1" width="32" height="18">
  <data encoding="csv">
15,16,171,172,173,174,175,176,175,176,173,174,175,176,173,174,175,176,171,172,173,174,175,176,171,172,173,174,175,176,23,24,
43,44,199,200,201,202,203,204,203,204,201,202,203,204,201,202,203,204,199,200,201,202,203,204,199,200,201,202,203,204,51,52,
71,72,0,0,0,0,0,0,0,0,0,0,0,0,0,0,0,0,0,0,0,0,0,0,0,0,0,0,0,0,79,80,
99,100,0,0,0,0,0,0,0,0,0,0,0,0,0,0,0,0,0,0,0,0,0,0,0,0,0,0,0,0,107,108,
127,128,0,0,0,0,0,0,0,0,0,0,0,0,0,0,0,0,0,0,0,0,0,0,0,0,0,0,0,0,135,136,
155,156,0,0,0,0,0,0,0,0,0,0,0,0,0,0,0,0,0,0,0,0,0,0,0,0,0,0,0,0,163,164,
183,184,0,0,0,0,0,0,0,0,0,0,0,0,0,0,0,0,0,0,0,0,0,0,0,0,0,0,0,0,51,52,
43,44,0,0,0,0,0,0,0,0,0,0,0,0,0,0,0,0,0,0,0,0,0,0,0,0,0,0,0,0,79,80,
71,72,0,0,0,0,0,0,0,0,0,0,0,0,0,0,0,0,0,0,0,0,0,0,0,0,0,0,0,0,107,108,
99,100,0,0,0,0,0,0,0,0,0,0,0,0,0,0,0,0,0,0,0,0,0,0,0,0,0,0,0,0,135,136,
127,128,0,0,0,0,0,0,0,0,0,0,0,0,0,0,0,0,0,0,0,0,0,0,0,0,0,0,0,0,163,164,
155,156,0,0,0,0,0,0,0,0,0,0,0,0,0,0,0,0,0,0,0,0,0,0,0,0,0,0,0,0,51,52,
71,72,0,0,0,0,0,0,0,0,0,0,0,0,0,0,0,0,0,0,0,0,0,0,0,0,0,0,0,0,79,80,
99,100,0,0,0,0,0,0,0,0,0,0,0,0,0,0,0,0,0,0,0,0,0,0,0,0,0,0,0,0,107,108,
127,128,0,0,0,0,0,0,0,0,0,0,0,0,0,0,0,0,0,0,0,0,0,0,0,0,0,0,0,0,135,136,
155,156,0,0,256,257,258,259,0,0,0,0,0,0,0,0,0,0,0,0,0,0,0,0,0,0,0,0,0,0,163,164,
183,184,185,186,284,285,286,287,185,186,187,188,189,190,185,186,187,188,189,190,185,186,187,188,185,186,187,188,189,190,191,192,
211,212,213,214,312,313,314,315,213,214,215,216,217,218,213,214,215,216,217,218,213,214,215,216,213,214,215,216,217,218,219,220
</data>
 </layer>
 <layer id="3" name="objects" width="32" height="18">
  <data encoding="csv">
0,0,0,0,0,0,0,0,0,0,0,0,0,0,0,0,0,0,0,0,0,0,0,0,0,0,0,0,0,0,0,0,
0,0,0,0,0,0,0,0,0,0,0,0,0,0,0,0,0,0,0,0,0,0,0,0,0,0,0,0,0,0,0,0,
0,0,0,0,399,400,0,0,0,0,0,0,0,0,0,0,337,338,0,0,0,0,0,0,0,0,0,0,0,0,0,0,
0,0,0,0,427,428,0,0,0,0,0,403,404,0,0,0,365,366,0,0,0,399,400,0,0,349,350,0,0,0,0,0,
0,0,0,0,0,0,0,0,0,0,0,431,432,0,0,0,0,0,0,0,0,427,428,0,0,377,378,345,346,0,0,0,
0,0,0,0,0,343,344,0,0,0,0,0,0,0,0,0,0,0,0,0,0,0,0,0,0,0,0,373,374,0,0,0,
0,0,0,0,0,371,372,393,394,0,0,0,0,0,345,346,0,0,0,0,0,0,0,0,0,0,0,0,0,0,0,0,
0,0,0,0,341,342,0,421,422,0,0,0,0,0,373,374,0,0,0,0,0,0,0,0,0,0,0,0,0,0,0,0,
0,0,0,0,369,370,0,0,0,0,0,0,337,338,0,0,0,0,395,396,0,0,0,0,397,398,0,0,0,0,0,0,
0,0,0,0,0,0,0,399,400,0,0,0,365,366,0,0,0,0,423,424,0,0,0,0,425,426,0,0,0,0,0,0,
0,0,0,0,0,397,398,427,428,0,0,0,0,0,0,0,0,0,0,0,0,0,341,342,0,0,0,0,0,0,0,0,
0,0,0,0,0,425,426,0,0,0,0,0,0,0,0,0,0,0,0,0,0,0,369,370,0,0,0,0,0,0,0,0,
0,0,0,0,0,0,0,0,0,0,0,0,0,0,0,0,0,0,0,0,0,0,0,0,0,0,0,399,400,0,0,0,
0,0,0,0,0,0,0,347,348,0,0,345,346,0,0,0,0,403,404,0,0,343,344,0,0,0,0,427,428,0,0,0,
0,0,0,0,0,0,0,375,376,0,0,373,374,0,0,0,0,431,432,0,0,371,372,0,0,397,398,0,0,0,0,0,
0,0,0,0,0,0,0,0,0,0,0,0,0,0,0,0,0,0,0,0,0,0,0,0,0,425,426,0,0,0,0,0,
0,0,0,0,0,0,0,0,0,0,0,0,0,0,0,0,0,0,0,0,0,0,0,0,0,0,0,0,0,0,0,0,
0,0,0,0,0,0,0,0,0,0,0,0,0,0,0,0,0,0,0,0,0,0,0,0,0,0,0,0,0,0,0,0
</data>
 </layer>
 <objectgroup id="4" name="Collidables">
  <object id="3" x="106.25" y="53.125" width="28" height="27.3333"/>
  <object id="4" x="280.5205" y="76.041675" width="28.6667" height="30"/>
  <object id="5" x="408.125" y="56.25" width="22" height="22"/>
  <object id="6" x="535.4195" y="79.166675" width="26.6667" height="30"/>
  <object id="7" x="306.25" y="204.791675" width="22" height="27.3333"/>
  <object id="9" x="123.395825" y="257.8125" width="32" height="24.6667"/>
  <object id="10" x="177.0835" y="230" width="30" height="26"/>
  <object id="11" x="429.2925" y="326.458375" width="28" height="28.6667"/>
  <object id="12" x="627.0835" y="357.395875" width="30.6667" height="22.6667"/>
  <object id="13" x="679.25" y="298.020875" width="31.3333" height="30"/>
  <object id="14" x="601.042375" y="202.291675" width="29.3333" height="30.6667"/>
 </objectgroup>
</map>
