<?xml version="1.0" encoding="UTF-8"?>
<map version="1.10" tiledversion="1.10.2" orientation="orthogonal" renderorder="right-down" width="32" height="18" tilewidth="16" tileheight="16" infinite="0" nextlayerid="9" nextobjectid="86">
 <tileset firstgid="1" source="../tiles/1_terrain.tsx"/>
 <tileset firstgid="1441" source="../tiles/3_plants.tsx"/>
 <tileset firstgid="1681" source="../tiles/10_dirt.tsx"/>
 <tileset firstgid="1961" source="../tiles/trees.tsx"/>
 <tileset firstgid="1966" source="../tiles/5_waterfall.tsx"/>
 <tileset firstgid="2326" source="../../../../Downloads/tilesets_edit/plants.tsx"/>
 <layer id="1" name="Tile Layer 1" width="32" height="18" locked="1">
  <data encoding="csv">
63,64,63,64,63,64,63,64,63,64,63,64,63,64,63,64,63,64,63,64,63,64,63,64,63,64,63,64,63,64,63,64,
93,94,93,94,93,94,93,94,93,94,93,94,93,94,93,94,93,94,93,94,93,94,93,94,93,94,93,94,93,94,93,94,
63,64,63,64,63,64,63,64,63,64,63,64,63,64,63,64,63,64,63,64,63,64,1710,1711,1712,64,63,64,63,64,63,64,
93,94,93,94,93,94,93,94,93,94,93,94,93,94,93,94,93,94,93,94,93,94,93,1725,1726,94,93,94,93,94,93,94,
63,64,63,64,63,64,63,64,63,64,63,64,63,64,63,64,63,64,63,64,63,64,63,64,63,64,63,64,63,64,63,64,
93,94,93,94,93,94,93,94,93,94,93,94,93,94,93,94,93,94,93,94,93,94,93,94,93,94,93,94,93,94,93,94,
63,64,63,64,63,64,63,64,63,64,63,64,63,64,63,64,63,64,63,64,63,64,63,64,63,64,63,64,63,64,63,64,
93,94,93,94,93,94,93,94,93,94,93,94,93,94,93,94,93,94,93,94,93,94,93,94,93,94,93,94,93,94,93,94,
63,64,63,64,63,64,63,64,63,64,63,64,63,64,63,64,63,64,63,64,63,64,63,64,63,64,63,64,63,64,63,64,
63,64,63,64,63,64,63,64,63,64,63,64,63,64,63,64,63,64,63,64,63,64,63,64,63,64,63,64,63,64,63,64,
93,94,93,94,93,94,93,94,93,94,93,94,93,94,93,94,93,94,93,94,93,94,93,94,93,94,93,94,93,94,93,94,
63,64,63,64,63,64,63,64,63,64,63,64,63,64,63,64,63,64,63,64,63,64,63,64,63,64,63,64,63,64,63,64,
93,94,93,94,93,94,93,94,93,94,93,94,93,94,93,94,93,94,93,94,93,94,93,94,93,94,93,94,93,94,93,94,
63,64,63,64,63,64,63,64,63,64,63,64,63,64,63,64,63,64,63,64,63,64,63,64,63,64,63,64,63,64,63,64,
93,94,93,94,93,94,93,94,93,94,93,94,93,94,93,94,93,94,93,94,93,94,93,94,93,94,93,94,93,94,93,94,
63,64,63,64,63,64,63,64,63,64,63,64,63,64,63,64,63,64,63,64,63,64,63,64,63,64,63,64,63,64,63,64,
93,94,93,94,93,94,93,94,93,94,93,94,93,94,93,94,93,94,93,94,93,94,93,94,93,94,93,94,93,94,93,94,
63,64,63,64,63,64,63,64,63,64,63,64,63,64,63,64,63,64,63,64,63,64,63,64,63,64,63,64,63,64,63,64
</data>
 </layer>
 <layer id="3" name="Tile Layer 2" width="32" height="18" locked="1">
  <data encoding="csv">
2038,2039,0,0,0,0,0,0,0,0,0,0,0,0,0,0,0,0,0,0,0,0,0,0,0,0,0,0,0,0,0,792,
2056,2057,0,0,0,0,0,0,0,0,0,0,0,0,0,0,0,0,0,0,0,0,0,0,0,0,0,0,0,0,821,822,
0,0,0,1143,1144,0,0,1143,1144,0,0,0,0,0,0,0,0,0,0,0,0,0,38,154,39,0,0,0,0,0,0,793,
0,0,0,1173,1174,0,0,1173,1174,0,0,0,0,0,0,0,0,0,0,0,0,0,0,68,69,0,0,0,0,0,0,823,
0,0,1149,1143,1144,0,0,1143,1146,0,0,0,0,0,0,0,0,0,0,0,0,0,0,0,0,0,0,0,0,0,762,793,
0,1112,1144,1173,1174,0,0,1173,1176,0,0,0,0,0,0,0,0,0,0,0,0,0,0,0,0,0,0,0,0,0,792,823,
1174,1173,1174,0,1143,1144,1143,1205,1206,0,0,0,0,0,0,0,0,0,0,0,0,0,0,0,0,0,0,0,0,821,822,793,
0,0,0,0,1143,1144,1173,1118,1236,0,0,0,0,0,0,0,0,0,0,0,0,0,0,0,0,0,0,0,0,762,824,823,
0,0,0,1202,1173,1174,1205,1206,0,0,0,0,0,0,0,0,0,0,0,0,0,0,0,0,0,0,0,0,762,793,794,793,
0,0,0,0,1233,1234,1235,1236,0,0,0,0,0,0,0,0,0,0,0,0,0,0,0,0,0,0,0,821,822,823,824,823,
0,0,0,0,0,0,0,0,0,0,0,0,0,0,0,0,0,0,0,0,0,0,0,0,0,0,0,791,854,793,794,793,
0,0,0,0,0,0,0,0,0,0,0,0,0,0,0,0,0,0,0,0,0,0,0,0,0,0,0,0,791,792,824,823,
0,0,0,0,0,0,0,0,0,0,0,0,0,0,0,0,0,0,0,0,0,0,0,0,0,0,0,851,0,852,794,793,
0,0,0,0,0,0,0,0,0,0,0,0,0,0,0,0,0,0,0,0,0,0,0,0,0,0,0,0,0,791,792,823,
0,0,0,0,0,0,0,0,0,0,0,0,0,0,0,0,0,0,0,0,0,0,0,0,0,0,0,0,0,821,822,793,
0,0,0,0,0,0,0,0,0,0,0,0,0,0,0,0,0,0,0,0,0,0,0,0,0,0,0,0,0,0,852,823,
0,0,0,0,0,0,0,0,0,0,0,0,0,0,0,0,0,0,0,0,0,0,0,0,0,0,0,0,0,0,791,792,
0,0,0,0,0,0,0,0,0,0,0,0,0,0,0,0,0,0,0,0,0,0,0,0,0,0,0,0,0,0,821,822
</data>
 </layer>
 <layer id="8" name="Tile Layer 4" width="32" height="18" locked="1">
  <data encoding="csv">
0,0,0,0,0,0,0,0,0,2039,2040,2041,2042,2043,0,0,0,0,0,0,0,0,0,0,0,0,0,0,0,0,0,0,
0,0,0,0,0,0,0,0,0,2057,2058,2059,2060,2061,0,0,0,0,0,0,0,0,0,0,0,0,0,0,0,0,0,0,
0,0,0,0,0,0,0,0,0,0,0,0,0,0,0,0,0,0,0,0,0,0,0,0,0,0,0,0,0,0,0,0,
0,0,0,0,0,0,0,0,0,0,0,0,0,0,0,0,0,0,0,0,0,0,0,0,0,0,0,0,0,0,0,0,
0,0,0,0,0,0,0,0,0,0,0,0,0,0,0,0,0,0,0,0,0,0,0,0,0,0,0,0,0,0,0,0,
0,0,0,0,0,0,0,0,0,0,0,0,0,0,0,0,0,0,0,0,0,0,0,0,0,0,0,0,0,0,0,0,
0,0,0,0,0,0,0,0,0,0,0,0,0,0,0,0,0,0,0,0,0,0,0,0,0,0,0,0,0,0,0,0,
0,0,0,0,0,0,0,0,0,0,0,0,0,0,0,0,0,0,0,0,0,0,0,0,0,0,0,0,0,0,0,0,
0,0,0,0,0,0,0,0,0,0,0,0,0,0,0,0,0,0,0,0,0,0,0,0,0,0,0,0,0,0,0,0,
0,0,0,0,0,0,0,0,0,0,0,0,0,0,0,0,0,0,0,0,0,0,0,0,0,0,0,0,0,0,0,0,
0,0,0,0,0,0,0,0,0,0,0,0,0,0,0,0,0,0,0,0,0,0,0,0,0,0,0,0,0,0,0,0,
0,0,0,0,0,0,0,0,0,0,0,0,0,0,0,0,0,0,0,0,0,0,0,0,0,0,0,0,0,0,0,0,
0,0,0,0,0,0,0,0,0,0,0,0,0,0,0,0,0,0,0,0,0,0,0,0,0,0,0,0,0,0,0,0,
0,0,0,0,0,0,0,0,0,0,0,0,0,0,0,0,0,0,0,0,0,0,0,0,0,0,0,0,0,0,0,0,
0,0,0,0,0,0,0,0,0,0,0,0,0,0,0,0,0,0,0,0,0,0,0,0,0,0,0,0,0,0,0,0,
0,0,0,0,0,0,0,0,0,0,0,0,0,0,0,0,0,0,0,0,0,0,0,0,0,0,0,0,0,0,0,0,
0,0,0,0,0,0,0,0,0,0,0,0,0,0,0,0,0,0,0,0,0,0,0,0,0,0,0,0,0,0,0,0,
0,0,0,0,0,0,0,0,0,0,0,0,0,0,0,0,0,0,0,0,0,0,0,0,0,0,0,0,0,0,0,0
</data>
 </layer>
 <layer id="2" name="Tile Layer 3" width="32" height="18">
  <data encoding="csv">
0,1984,2003,2004,2224,2225,2228,2229,2006,2007,2334,2335,2336,2337,2338,2339,0,0,0,0,0,0,0,0,0,0,0,0,0,0,0,0,
0,2002,2021,2022,2242,2243,2246,2247,2024,2025,2364,2365,2366,2367,2368,2369,0,0,0,0,0,0,0,1525,1526,0,0,0,0,1585,1586,0,
0,2056,2039,2040,2260,2261,2264,2265,2042,2043,2394,2395,2396,2397,2398,2399,0,0,0,2326,2327,0,0,1555,1556,0,0,1644,1645,1615,1616,0,
0,0,2056,2057,2058,2279,2282,2059,2060,2061,2424,2425,2426,2427,2428,2429,0,0,0,2356,2357,0,0,0,0,0,1673,1674,1675,1645,1646,0,
0,0,0,0,2296,2297,2300,2301,0,0,2454,2455,2456,2457,2458,2459,0,0,0,2386,2387,0,0,0,0,0,2506,2507,0,1675,1676,0,
363,364,363,364,377,378,2318,2319,0,0,2484,2485,2486,2487,2488,2489,0,0,0,2416,2417,0,0,0,0,0,2536,2537,0,0,0,0,
393,394,393,394,407,408,425,0,0,0,2514,2515,2516,2517,2518,2519,0,0,0,0,0,0,0,1644,1645,1646,0,0,0,0,0,0,
423,424,423,453,454,453,455,0,0,0,2544,2545,2546,2547,2548,2549,0,0,0,0,0,0,0,0,1675,0,0,0,0,0,0,0,
484,483,484,483,484,483,485,0,0,0,0,0,0,0,0,0,0,0,0,0,0,0,0,0,0,0,0,0,0,0,0,0,
0,0,0,0,0,0,0,0,0,0,2326,2327,0,0,0,0,0,0,0,0,0,0,0,0,0,0,0,0,0,0,0,0,
0,0,0,0,0,0,0,0,0,0,2356,2357,0,0,0,0,0,0,0,0,0,0,0,0,0,2446,2447,0,0,0,0,0,
0,0,0,0,0,0,2326,2327,0,0,2386,2387,0,0,0,0,0,0,0,0,0,0,2326,2327,0,2476,2477,0,0,0,0,0,
0,0,0,0,0,0,2356,2357,0,0,2416,2417,0,0,0,0,0,0,0,0,0,0,2356,2357,0,0,0,0,0,0,0,0,
0,0,0,0,0,0,2386,2387,0,0,0,0,0,0,0,0,0,1465,1466,0,0,0,2386,2387,0,0,2326,2327,0,0,0,0,
0,0,0,0,1583,1584,2416,2417,0,0,0,0,2446,2447,0,1587,1588,1495,1496,1587,1588,0,2416,2417,0,0,2356,2357,0,0,0,0,
0,0,0,0,1613,1614,0,1583,1584,0,0,0,2476,2477,0,1617,1618,0,0,1617,1618,1465,1466,0,0,0,2386,2387,1644,1645,0,0,
0,0,0,0,0,0,0,1613,1614,0,0,0,0,0,0,2506,2507,0,1465,1466,0,1495,1496,0,0,0,2416,2417,1674,1675,0,0,
0,0,0,0,0,0,0,0,0,0,0,0,0,0,0,2536,2537,0,1495,1496,0,0,0,0,0,0,0,0,0,0,0,0
</data>
 </layer>
 <objectgroup id="7" name="Collidables">
  <object id="65" x="48.4375" y="-3.125" width="51" height="63.5"/>
  <object id="68" x="0.78125" y="-0.78125" width="31.5" height="25.5"/> 
  <object id="69" x="25" y="38.28125" width="14.5" height="21"/>
  <object id="71" x="124.21875" y="-0.78125" width="80" height="58"/>
  <object id="72" x="246.5625" y="2.34375" width="67.5" height="26"/>
  <object id="74" x="2.34375" y="147.65625" width="114" height="48"/>
  <object id="76" x="251.5625" y="246.25" width="32.5" height="43.5"/>
  <object id="77" x="265.625" y="44.53125" width="69.5" height="79.5"/>
  <object id="78" x="476.25" y="60.9375" width="30" height="51.5"/>
  <object id="79" x="650.78125" y="105.46875" width="30" height="21.5"/>
  <object id="80" x="626.5625" y="258.59375" width="28" height="22"/>
  <object id="81" x="650.78125" y="337.5" width="29.5" height="49.5"/>
  <object id="82" x="551.5625" y="286.71875" width="31" height="47.5"/>
  <object id="83" x="151.5625" y="290.625" width="28.5" height="49"/>
  <object id="84" x="304.53125" y="355.46875" width="26.5" height="26.5"/>
  <object id="85" x="381.25" y="408.59375" width="24.5" height="20.5"/>
 </objectgroup>
</map>
