<?xml version="1.0" encoding="UTF-8"?>
<map version="1.10" tiledversion="1.10.2" orientation="orthogonal" renderorder="right-down" width="32" height="18" tilewidth="16" tileheight="16" infinite="0" nextlayerid="6" nextobjectid="1">
 <tileset firstgid="1" source="../tiles/9_beach.tsx"/>
 <tileset firstgid="289" source="../tiles/10_dirt.tsx"/>
 <tileset firstgid="569" source="../tiles/1_terrain.tsx"/>
 <tileset firstgid="2009" source="../tiles/3_plants.tsx"/>
 <tileset firstgid="2249" source="../tiles/5_waterfall.tsx"/>
 <tileset firstgid="2609" source="../tiles/12_extra1.tsx"/>
 <tileset firstgid="2769" source="../tiles/8_cave.tsx"/>
 <layer id="1" name="Tile Layer 1" width="32" height="18">
  <data encoding="csv">
0,0,0,0,0,0,0,0,0,0,0,0,0,0,0,0,0,0,0,0,0,0,0,0,0,0,0,0,0,0,0,423,
0,0,0,0,0,0,0,0,0,0,0,0,0,0,0,0,0,0,0,0,0,0,0,0,0,0,0,0,0,0,0,437,
0,0,0,0,0,0,0,0,0,0,0,0,0,0,0,0,0,0,0,0,0,0,0,0,0,0,0,0,0,0,0,451,
0,0,0,0,0,0,0,0,0,0,0,0,0,0,0,0,0,0,0,0,0,0,0,0,0,0,0,0,0,0,0,465,
0,0,0,0,0,0,0,0,0,0,0,0,0,0,0,0,0,0,0,0,0,0,0,0,0,0,0,0,0,0,0,423,
0,0,0,0,0,0,0,0,0,0,0,0,0,0,0,0,0,0,0,0,0,0,0,0,0,0,0,0,0,0,0,437,
0,0,0,0,0,0,0,0,0,0,0,0,0,0,0,0,0,0,0,0,0,0,0,0,0,0,0,0,0,0,0,451,
0,0,0,0,0,0,0,0,0,0,0,0,0,0,0,0,0,0,0,0,0,0,0,0,0,0,0,0,0,0,0,465,
0,0,0,0,0,0,0,0,0,0,0,0,0,0,0,0,0,0,0,0,0,0,0,0,0,0,0,0,0,0,0,423,
0,0,0,0,0,0,0,0,0,0,0,0,0,0,0,0,0,0,0,0,0,0,0,0,0,0,0,0,0,0,0,437,
0,0,0,0,0,0,0,0,0,0,0,0,0,0,0,0,0,0,0,0,0,0,0,0,0,0,0,0,0,0,0,1693,
1201,1202,1201,2269,2270,0,0,2269,2270,2287,2288,1723,1711,1721,1835,1723,1720,1721,1722,1723,1711,1721,1711,1751,1752,1753,1711,1723,1720,1721,1722,1723,
1750,1751,1835,2287,2288,0,0,2287,2288,2305,2306,1835,1750,1751,1752,1711,1750,1751,1711,1753,1750,1751,1752,1753,1750,1751,1835,1711,1750,1751,1752,1753,
2269,2270,2269,2305,2306,0,0,2305,2306,2270,2269,2270,1780,1781,1782,1783,1780,1835,1782,1783,1780,1781,1711,1783,1780,1781,1782,1783,1780,1781,1782,1783,
2287,2288,2287,2288,0,0,0,0,2287,2288,2287,2288,1690,1711,1692,1693,631,632,631,632,631,632,631,632,631,632,631,632,631,632,631,632,
2305,2306,2305,2306,0,0,0,0,2305,2306,2305,2306,1720,1721,1722,1723,661,662,661,662,661,662,661,662,661,662,661,662,661,662,661,662,
2287,2288,2287,2288,0,0,0,0,2287,2288,2287,2288,1835,1751,631,632,631,632,631,632,631,632,631,632,631,632,631,632,631,632,631,632,
2305,2306,2305,2287,2288,0,0,2287,2288,2306,2305,2306,1780,1711,661,662,661,662,661,662,661,662,661,662,661,662,661,662,661,662,661,662
</data>
 </layer>
 <layer id="2" name="Tile Layer 2" width="32" height="18">
  <data encoding="csv">
0,0,0,0,0,0,0,0,0,0,0,0,0,0,0,0,0,0,0,0,0,0,0,0,0,0,0,0,0,0,0,0,
0,0,0,0,0,0,0,0,0,0,0,0,0,0,0,0,0,0,0,0,0,0,0,0,0,0,0,0,0,0,0,0,
0,0,0,0,0,0,0,0,0,0,0,0,0,0,0,0,0,0,0,0,0,0,0,0,0,0,0,0,0,0,0,0,
0,0,0,0,0,0,0,0,0,0,0,0,0,0,0,0,0,0,0,0,0,0,0,0,0,0,0,0,0,0,0,0,
0,0,0,0,0,0,0,0,0,0,0,0,0,0,0,0,0,0,0,0,0,0,0,0,0,0,0,0,0,0,0,0,
0,0,0,0,0,0,0,0,0,0,0,0,0,0,0,0,0,0,0,0,0,0,0,0,0,0,0,0,0,0,0,0,
0,0,0,0,0,0,0,0,0,0,0,0,0,0,0,0,0,0,0,0,0,0,0,0,0,0,0,0,0,0,0,0,
0,0,0,0,0,0,0,0,0,0,0,0,0,0,0,0,0,0,0,0,0,0,0,0,0,0,0,0,0,0,0,0,
0,0,0,0,0,0,0,0,0,0,0,0,0,0,0,0,0,0,0,0,0,0,0,0,0,362,0,0,0,0,0,0,
0,0,0,0,0,0,0,0,0,0,0,0,0,0,0,0,0,0,0,0,0,0,0,2269,2287,2288,0,0,0,0,0,0,
0,0,2029,1021,1022,1022,1021,1022,992,993,994,1024,0,0,0,0,0,0,0,2287,2288,2287,2288,2287,2305,2269,0,0,0,0,0,0,
0,0,0,991,992,991,992,991,1022,1023,1024,1054,2288,2287,2288,2287,2288,2287,2288,2305,2306,2305,2306,2305,2306,2287,2288,2287,2288,2287,2288,2287,
0,0,0,1051,995,996,997,998,1052,1053,1054,2305,2306,2305,2269,2305,2306,2305,2306,2270,2269,2270,2269,2270,2269,2305,2306,2305,2306,2305,2306,2305,
2149,2150,0,0,1025,1026,1027,1028,0,0,0,0,2269,2270,2287,2288,2269,2270,2287,2322,2323,2324,2325,2323,2324,2325,2269,2270,2269,2270,2269,2270,
2179,2180,2033,2034,2513,2514,2517,2518,0,0,0,0,2287,2288,2305,2306,2324,2325,2325,2340,2341,2342,2343,2341,2342,2343,2287,2288,2322,2323,2324,2325,
2209,2210,2063,2064,2513,2514,2517,2518,0,0,0,0,2305,2306,2269,2325,2342,2343,2344,0,0,0,0,0,0,0,2339,2340,2340,2341,2342,2343,
2239,2240,0,0,2531,2532,2535,2536,0,0,0,0,2287,2288,2287,2290,0,0,0,0,0,0,0,0,0,0,0,0,0,0,0,0,
0,0,0,0,0,2550,2553,0,0,0,0,0,2305,2306,2305,2308,0,0,0,0,0,0,0,0,0,0,0,0,0,0,0,0
</data>
 </layer>
 <layer id="4" name="Tile Layer 3" width="32" height="18">
  <data encoding="csv">
0,0,0,0,0,0,0,0,0,0,0,319,320,319,320,320,435,436,437,434,435,436,420,421,1771,1772,422,423,420,421,422,0,
0,0,0,0,0,0,0,0,0,0,0,333,334,333,334,334,449,450,451,448,449,450,434,435,434,435,436,437,434,435,436,0,
0,0,0,0,0,0,0,0,0,0,0,319,320,464,465,462,463,464,465,462,463,464,448,449,448,449,450,451,448,449,450,0,
0,0,0,0,0,0,0,0,0,0,0,333,334,422,423,420,421,422,423,420,421,422,462,463,462,463,464,465,462,463,464,0,
0,0,0,0,0,0,0,0,0,0,0,319,320,436,437,434,435,436,437,434,435,436,420,421,420,421,422,423,420,421,422,0,
0,0,0,0,0,0,0,0,0,0,0,333,334,450,451,448,449,450,451,448,449,450,434,435,434,435,436,437,434,435,436,0,
0,0,0,0,0,0,0,0,0,0,0,462,463,464,465,462,463,464,465,462,463,464,448,449,448,449,450,451,448,449,450,0,
0,0,0,0,0,0,0,0,0,0,0,420,421,422,423,420,421,422,423,420,421,422,462,463,462,463,464,465,462,463,464,0,
0,0,0,0,0,0,0,0,0,0,0,434,435,436,437,434,435,436,437,434,435,436,420,421,333,334,420,421,420,421,422,0,
0,0,0,0,0,0,0,0,0,0,0,448,449,450,451,448,449,450,451,346,347,348,349,346,347,348,349,435,434,435,436,0,
0,0,0,0,0,0,0,0,0,0,345,346,347,348,349,346,347,348,349,360,361,362,363,360,361,362,363,346,347,348,349,346,
0,0,0,0,0,0,0,0,0,0,359,360,361,362,363,360,361,362,363,0,0,0,0,0,0,0,0,360,361,362,363,360,
0,0,0,0,0,0,0,0,0,0,0,0,0,0,0,0,0,0,0,0,0,0,0,0,0,0,0,0,0,0,0,0,
0,0,0,0,0,0,0,0,0,0,0,0,0,0,0,0,0,0,0,0,0,0,0,0,0,0,0,0,0,0,0,0,
0,0,0,0,0,0,0,0,0,0,0,0,0,0,0,0,0,0,0,0,0,0,0,0,0,0,0,0,0,0,0,0,
0,0,0,0,0,0,0,0,0,0,0,0,0,0,0,0,0,0,0,0,0,0,0,0,0,0,0,0,0,0,0,0,
0,0,0,0,0,0,0,0,0,0,0,0,0,0,0,0,0,0,0,0,0,0,0,0,0,0,0,0,0,0,0,0,
0,0,0,0,0,0,0,0,0,0,0,0,0,0,0,0,0,0,0,0,0,0,0,0,0,0,0,0,0,0,0,0
</data>
 </layer>
 <layer id="3" name="Tile Layer 4" width="32" height="18">
  <data encoding="csv">
2269,2270,2269,2270,2305,2306,2305,2306,2305,2306,2269,2270,2271,2272,0,0,0,0,0,0,0,0,1709,1710,2909,2910,2911,2912,2913,2914,2915,2916,
2287,2288,2287,2288,2269,2270,2269,2270,2269,2270,2287,2288,2289,2290,0,0,0,0,0,0,0,0,1739,1740,2937,2938,2939,2940,2941,2942,2943,2944,
2305,2306,2305,2306,2287,2288,2287,2288,2269,2270,2305,2306,2307,2308,0,2027,2028,0,0,0,0,0,1739,1740,2965,2966,2967,2968,2969,2970,2971,2972,
2269,2270,2269,2270,2305,2306,2305,2306,2287,2288,2287,2288,2289,2290,0,2057,2058,0,0,0,0,0,1709,1710,3021,3022,3023,3024,3025,3026,3027,3028,
2287,2288,2287,2288,2269,2270,2269,2270,2305,2306,2305,2325,2343,2344,0,0,0,0,0,0,0,0,1739,1740,3049,3050,3051,3052,3053,3054,3055,3056,
2305,2306,2305,2306,2287,2288,2287,2288,2269,2270,2271,2272,0,0,0,0,0,0,0,0,0,0,1769,1770,3077,3078,3079,3080,3081,3082,3083,3084,
2269,2270,2269,2270,2305,2306,2305,2306,2287,2288,2289,2290,0,0,0,0,0,0,0,0,2087,2088,1799,1800,1801,1801,1802,1803,1800,1801,1802,1802,
2287,2288,2287,2288,2305,2306,2305,2306,2305,2306,2307,2308,0,2085,2086,0,0,0,0,0,2117,2118,0,0,0,2027,2028,0,0,0,0,0,
2305,2306,2305,2307,2323,2324,2323,2324,2323,2324,2325,2326,0,2115,2116,0,0,0,0,0,0,0,0,0,0,2057,2058,0,0,0,0,0,
2287,2288,2289,2325,2341,2342,2341,2342,2341,2342,2343,2344,0,0,0,0,0,0,0,0,0,0,0,0,0,0,0,0,0,0,0,0,
2305,2306,2307,2308,0,0,0,0,0,0,0,0,0,0,0,0,0,0,0,0,0,0,0,0,0,0,0,0,0,0,0,0,
2323,2324,2325,2326,0,0,0,0,0,0,0,0,0,0,2087,2088,0,0,0,0,0,0,2209,2210,0,0,0,0,0,0,0,0,
2341,2342,2343,2344,0,0,0,0,0,0,0,0,0,0,2117,2118,0,0,0,0,0,0,2239,2240,0,0,0,0,0,0,0,0,
0,0,0,0,0,0,0,0,0,0,0,0,0,0,0,0,0,2025,2026,0,0,0,0,0,0,0,0,2093,2094,0,0,0,
0,0,0,0,0,0,0,0,0,0,0,0,0,0,0,0,0,2055,2056,0,0,0,0,0,0,0,0,2123,2124,0,0,0,
0,0,0,0,0,0,0,0,0,0,0,0,0,0,0,0,0,0,0,0,0,0,0,2087,2088,0,0,0,0,0,0,0,
0,0,0,0,0,0,0,0,0,0,0,2027,2028,0,0,0,0,0,0,0,0,0,0,2117,2118,0,0,0,0,0,0,0,
0,0,0,0,0,0,0,0,0,0,0,2057,2058,0,0,0,0,0,0,0,0,0,0,0,0,0,0,0,0,0,0,0
</data>
 </layer>
 <layer id="5" name="Tile Layer 5" width="32" height="18">
  <data encoding="csv">
2620,2621,2622,2620,2621,2622,2657,2658,2641,2642,2624,0,0,0,0,0,0,0,0,0,0,0,0,0,0,0,0,0,0,0,0,0,
2655,2656,2657,2658,2631,2632,2667,2668,2655,2656,2634,0,0,0,0,0,0,0,0,2611,2612,0,0,0,0,0,0,0,0,0,0,0,
2665,2666,2667,2668,2641,2621,2622,2623,2665,2666,2644,0,0,0,0,0,0,0,2629,2631,2632,0,0,0,0,0,0,0,0,0,0,0,
2620,2621,2621,2622,2623,2631,2632,2633,2631,2632,2654,0,0,0,0,0,0,0,2620,2657,2658,2654,0,0,0,0,0,0,0,0,0,0,
2630,2657,2658,2632,2621,2622,2623,2643,2641,2642,2664,0,0,0,0,0,0,0,2639,2667,2668,2664,0,0,0,0,0,0,0,0,0,0,
2640,2667,2668,2642,2631,2632,2633,2657,2658,2664,0,0,0,0,0,0,0,0,0,2661,2662,0,0,0,0,0,0,0,0,0,0,0,
2650,2651,2652,2653,2660,2661,2662,2663,2664,0,0,0,0,0,0,0,0,0,0,0,0,0,0,0,0,0,0,0,0,0,0,0,
2650,2651,2652,2664,0,0,0,0,0,0,0,0,0,0,0,0,0,0,0,0,0,0,0,0,0,0,0,0,2609,2610,2611,2612,
2660,2661,2662,0,0,0,0,0,0,0,0,0,0,0,0,0,0,0,0,0,0,0,0,0,0,0,0,0,2619,2655,2656,2657,
0,0,0,0,0,0,0,0,0,0,0,0,0,0,0,0,0,0,0,0,0,0,0,0,0,0,0,0,0,2659,2666,2667,
0,0,0,0,0,0,0,0,0,0,0,0,0,0,0,0,0,0,0,0,0,0,0,0,0,0,0,0,0,0,2661,2662,
0,0,0,0,0,0,0,0,0,0,0,0,0,0,0,0,0,0,0,0,0,0,0,0,0,0,0,0,0,0,0,0,
0,0,0,0,0,0,0,0,0,0,0,0,0,0,0,0,0,0,0,0,0,0,0,0,0,0,0,0,0,0,0,0,
0,0,0,0,0,0,0,0,0,0,0,0,0,0,0,0,0,0,0,0,0,0,0,0,0,0,0,0,0,0,0,0,
0,0,0,0,0,0,0,0,0,0,0,0,0,0,0,0,0,0,0,0,0,0,0,0,0,0,0,0,0,0,0,0,
0,0,0,0,0,0,0,0,0,0,0,0,0,0,0,0,0,0,0,0,0,0,0,0,0,0,0,0,0,0,0,0,
0,0,0,0,0,0,0,0,0,0,0,0,0,0,0,0,0,0,0,0,0,0,0,0,0,0,0,0,0,0,0,0,
0,0,0,0,0,0,0,0,0,0,0,0,0,0,0,0,0,0,0,0,0,0,0,0,0,0,0,0,0,0,0,0
</data>
 </layer>
</map>
