<?xml version="1.0" encoding="UTF-8"?>
<map version="1.10" tiledversion="1.10.2" orientation="orthogonal" renderorder="right-down" width="32" height="18" tilewidth="16" tileheight="16" infinite="0" nextlayerid="3" nextobjectid="1">
 <tileset firstgid="1" source="../tiles/1_terrain.tsx"/>
 <layer id="1" name="Tile Layer 1" width="32" height="18">
  <data encoding="csv">
253,254,253,254,253,254,253,254,253,254,253,254,253,254,253,254,253,254,253,254,253,254,253,254,253,254,253,254,253,254,253,254,
283,284,283,284,283,284,283,284,283,284,283,284,283,284,283,284,283,284,283,284,283,284,283,284,283,284,283,284,283,284,283,284,
253,254,253,254,253,254,253,254,253,254,253,254,253,254,253,254,253,254,253,254,253,254,253,254,253,254,253,254,253,254,253,254,
283,284,283,284,283,284,283,284,283,284,283,284,283,284,283,284,283,284,283,284,283,284,283,284,283,284,283,284,283,284,283,284,
253,254,253,254,253,254,253,254,253,254,253,254,253,254,253,254,253,254,253,254,253,254,253,254,253,254,253,254,253,254,253,254,
283,284,283,284,283,284,283,284,283,284,283,284,283,284,283,284,283,284,283,284,283,284,283,284,283,284,283,284,283,284,283,284,
253,254,253,254,253,254,253,254,253,254,253,254,253,254,253,254,253,254,253,254,253,254,253,254,253,254,253,254,253,254,253,254,
283,284,283,284,283,284,283,284,283,284,283,284,283,284,283,284,283,284,283,284,283,284,283,284,283,284,283,284,283,284,283,284,
253,254,253,254,253,254,253,254,253,254,253,254,253,254,253,254,253,254,253,254,253,254,253,254,253,254,253,254,253,254,253,254,
283,284,283,284,283,284,283,284,283,284,283,284,283,284,283,284,283,284,283,284,283,284,283,284,283,284,283,284,283,284,283,284,
253,254,253,254,253,254,253,254,253,254,253,254,253,254,253,254,253,254,253,254,253,254,253,254,253,254,253,254,253,254,253,254,
283,284,283,284,283,284,283,284,283,284,283,284,283,284,283,284,283,284,283,284,283,284,283,284,283,284,283,284,283,284,283,284,
253,254,253,254,253,254,253,254,253,254,253,254,253,254,253,254,253,254,253,254,253,254,253,254,253,254,253,254,253,254,253,254,
283,284,283,284,283,284,283,284,283,284,283,284,283,284,283,284,283,284,283,284,283,284,283,284,283,284,283,284,283,284,283,284,
253,254,253,254,253,254,253,254,253,254,253,254,253,254,253,254,253,254,253,254,253,254,253,254,253,254,253,254,253,254,253,254,
283,284,283,284,283,284,283,284,283,284,283,284,283,284,283,284,283,284,283,284,283,284,283,284,283,284,283,284,283,284,283,284,
253,254,253,254,253,254,253,254,253,254,253,254,253,254,253,254,253,254,253,254,253,254,253,254,253,254,253,254,253,254,253,254,
283,284,283,284,283,284,283,284,283,284,283,284,283,284,283,284,283,284,283,284,283,284,283,284,283,284,283,284,283,284,283,284
</data>
 </layer>
 <layer id="2" name="Tile Layer 2" width="32" height="18">
  <data encoding="csv">
0,0,0,0,0,0,0,0,0,0,0,0,0,0,0,0,0,0,0,0,0,0,0,0,0,0,0,0,0,0,611,612,
0,0,0,0,0,0,0,0,0,0,0,0,0,0,0,0,0,0,0,0,0,0,0,0,0,0,0,0,0,0,641,642,
0,0,0,0,0,0,0,0,0,0,0,0,0,0,0,0,0,0,0,0,0,0,0,0,0,0,0,0,0,0,611,612,
0,0,0,0,0,0,0,0,0,0,0,0,0,0,0,0,0,0,0,0,0,0,0,0,0,0,0,0,0,0,641,642,
0,0,0,0,0,0,0,0,0,0,0,0,0,0,0,0,0,0,0,0,0,0,0,0,0,0,0,0,0,0,611,612,
0,0,0,0,0,0,0,0,0,0,0,0,0,0,0,0,0,0,0,0,0,0,0,0,0,0,0,0,0,0,641,642,
0,0,0,0,0,0,0,0,0,0,0,0,0,0,0,0,0,0,0,0,0,0,0,0,0,0,0,0,0,611,582,613,
0,0,0,0,0,0,0,0,0,0,0,0,0,0,0,0,0,0,0,0,0,0,0,0,0,0,0,0,0,641,642,643,
0,0,0,0,0,0,0,0,0,0,0,0,0,0,0,0,0,0,0,0,0,0,0,0,0,0,0,0,0,611,612,613,
0,0,0,0,0,0,0,0,0,0,0,0,0,0,0,0,0,0,0,0,0,0,0,0,0,0,0,0,0,641,642,643,
0,0,0,0,0,0,0,0,0,0,0,0,0,0,0,0,0,0,0,0,0,0,0,0,0,0,0,0,0,611,612,613,
0,0,0,0,0,0,0,0,0,0,0,0,0,0,0,0,0,0,0,0,0,0,0,0,0,0,0,0,0,641,642,643,
0,0,0,0,0,0,0,0,0,0,0,0,0,0,0,0,0,0,0,0,0,0,0,0,0,0,0,0,0,611,612,613,
0,0,0,0,0,0,0,0,0,0,0,0,0,0,0,0,0,0,0,0,0,0,0,0,0,0,0,0,0,0,672,643,
0,0,0,0,0,0,0,0,0,0,0,0,0,0,0,0,0,0,0,0,0,0,0,0,0,0,0,0,0,0,611,612,
0,0,0,0,0,0,0,0,0,0,0,0,0,0,0,0,0,0,0,0,0,0,0,0,0,0,0,0,0,0,641,642,
0,0,0,0,0,0,0,0,0,0,0,0,0,0,0,0,0,0,0,0,0,0,0,0,0,0,0,0,0,0,611,612,
0,0,0,0,0,0,0,0,0,0,0,0,0,0,0,0,0,0,0,0,0,0,0,0,0,0,0,0,0,0,641,642
</data>
 </layer>
</map>
