<?xml version="1.0" encoding="UTF-8"?>
<map version="1.10" tiledversion="1.10.2" orientation="orthogonal" renderorder="right-down" width="32" height="18" tilewidth="16" tileheight="16" infinite="0" nextlayerid="5" nextobjectid="1">
 <tileset firstgid="1" source="../tiles/1_terrain.tsx"/>
 <tileset firstgid="1441" source="../tiles/3_plants.tsx"/>
 <tileset firstgid="1681" source="../tiles/10_dirt.tsx"/>
 <layer id="1" name="Tile Layer 1" width="32" height="18">
  <data encoding="csv">
63,64,63,64,63,64,63,64,63,64,63,64,63,64,63,64,63,64,63,64,63,64,63,64,63,64,63,64,63,64,63,64,
93,94,93,94,93,94,93,94,93,94,93,94,93,94,93,94,93,94,93,94,93,94,93,94,93,94,93,94,93,94,93,94,
63,64,63,64,63,64,63,1711,1712,64,63,64,63,64,63,64,63,64,63,64,63,64,63,64,63,64,63,64,63,64,63,64,
93,94,93,94,93,94,93,1725,1726,94,93,94,93,94,93,94,93,94,93,94,93,1711,93,94,93,94,93,94,93,94,93,94,
63,64,63,64,63,64,63,64,63,64,63,64,63,64,63,64,63,64,63,64,63,1725,1726,64,63,64,63,64,63,64,63,64,
93,94,93,94,93,94,93,94,93,94,93,94,93,94,93,94,93,94,93,94,93,94,93,94,93,94,93,94,93,94,93,94,
63,64,63,64,63,64,63,64,63,64,63,64,63,64,63,64,63,64,63,64,63,64,63,64,63,64,63,64,63,64,63,64,
93,94,93,94,93,94,93,94,93,94,93,94,93,94,93,94,93,94,93,94,93,94,93,94,93,94,93,94,93,94,93,94,
63,64,63,64,63,64,63,64,63,64,63,64,63,64,63,64,63,64,63,64,63,64,63,64,63,64,63,64,63,64,63,64,
93,94,93,94,93,94,93,94,93,94,93,94,93,94,93,94,93,94,93,94,93,94,93,94,93,94,93,94,93,94,93,94,
63,64,63,64,63,64,63,64,63,64,1712,64,63,64,63,64,63,64,63,64,63,64,63,64,63,64,63,64,63,64,63,64,
93,94,93,94,93,94,93,94,93,1725,1726,94,93,94,93,94,93,94,93,94,93,94,93,94,93,94,93,94,93,94,93,94,
63,64,63,64,63,64,63,64,63,1739,1740,64,63,64,63,64,63,64,63,64,63,64,63,64,63,64,63,64,63,64,63,64,
93,94,93,94,93,94,93,94,93,94,93,94,93,94,93,94,93,94,93,94,93,94,93,94,93,94,93,94,93,94,93,94,
63,64,63,64,63,64,63,64,63,64,63,64,63,64,63,64,63,64,1711,1712,63,64,63,64,63,64,63,64,63,64,63,64,
93,94,93,94,93,94,93,94,93,94,93,94,93,94,93,94,93,94,1725,1726,93,94,93,94,93,94,93,94,93,94,93,94,
63,64,63,64,63,64,63,64,63,64,63,64,63,64,63,64,63,64,63,64,63,64,63,64,63,64,63,64,63,64,63,64,
93,94,93,94,93,94,93,94,93,94,93,94,93,94,93,94,93,94,93,94,93,94,93,94,93,94,93,94,93,94,93,94
</data>
 </layer>
 <layer id="4" name="Tile Layer 2" width="32" height="18">
  <data encoding="csv">
0,0,0,0,0,0,0,0,0,0,0,0,0,0,0,0,0,0,0,0,0,0,0,0,0,0,0,0,0,0,0,0,
0,0,0,0,0,0,0,0,0,0,0,0,0,0,0,0,0,0,0,0,0,0,0,0,0,0,0,0,0,0,0,0,
0,0,0,0,0,0,0,38,39,0,0,0,0,0,0,0,0,0,0,0,0,0,0,0,0,0,0,0,0,0,0,0,
0,0,0,0,0,0,0,69,0,0,0,0,0,0,0,0,0,0,0,0,0,154,0,0,0,0,0,0,0,0,0,0,
0,0,0,0,0,0,0,0,0,0,0,0,0,0,0,0,0,0,0,0,0,4,69,0,0,0,0,0,0,0,0,0,
0,0,0,0,0,0,0,0,0,0,0,0,0,0,0,0,0,0,0,0,0,0,0,0,0,0,0,0,0,0,0,0,
0,0,0,0,0,0,0,0,0,0,0,0,0,0,0,0,0,0,0,0,0,0,0,0,0,0,0,0,0,0,0,0,
0,0,0,0,0,0,0,0,0,0,0,0,0,0,0,0,0,0,0,0,0,0,0,0,0,0,0,0,0,0,0,0,
0,0,0,0,0,0,0,0,0,0,0,0,0,0,0,0,0,0,0,0,0,0,0,0,0,0,0,0,0,0,0,0,
0,0,0,0,0,0,0,0,0,0,0,0,0,0,0,0,0,0,0,0,0,0,0,39,0,0,0,0,0,0,0,0,
0,0,0,0,0,0,0,0,0,0,154,0,0,0,0,0,0,0,0,0,0,0,0,69,0,0,0,0,0,0,0,0,
0,0,0,0,0,0,0,0,0,3,61,0,0,0,0,0,0,0,0,0,0,0,0,0,0,0,0,0,0,0,0,0,
0,0,0,0,0,0,0,0,0,68,69,0,0,0,0,0,0,0,0,0,0,0,0,0,0,0,0,0,0,0,0,0,
0,0,0,0,0,0,0,0,0,0,0,0,0,0,0,0,0,0,0,0,0,0,0,0,0,0,0,0,0,0,0,0,
0,0,0,0,0,0,0,0,0,0,0,0,0,0,0,0,0,0,0,0,0,0,0,0,0,0,0,0,0,0,0,0,
0,0,0,0,0,0,0,0,0,0,0,0,0,0,0,0,0,0,68,69,0,0,0,0,0,0,0,0,0,0,0,0,
0,0,0,0,0,0,0,0,0,0,0,0,0,0,0,0,0,0,0,0,0,0,0,0,0,0,0,0,0,0,0,0,
0,0,0,0,0,0,0,0,0,0,0,0,0,0,0,0,0,0,0,0,0,0,0,0,0,0,0,0,0,0,0,0
</data>
 </layer>
 <layer id="2" name="water" width="32" height="18">
  <data encoding="csv">
0,0,0,0,0,0,0,0,0,0,0,0,1585,1586,0,0,0,0,0,0,0,0,0,0,0,0,0,0,0,0,0,0,
0,0,0,0,0,0,0,0,0,0,0,0,1615,1616,0,0,0,0,0,0,0,0,0,0,0,0,0,0,0,0,0,0,
0,0,0,0,0,0,0,361,362,383,384,383,373,374,373,364,363,364,373,374,365,64,0,0,0,0,0,0,0,0,0,0,
0,0,0,0,0,0,0,391,392,413,414,413,403,404,403,394,393,394,403,404,395,456,0,0,0,0,0,0,0,0,0,0,
0,0,0,0,0,1585,1586,431,432,253,254,253,254,253,254,253,254,253,254,253,425,426,0,0,0,0,0,0,0,0,0,0,
0,0,0,0,0,1615,1616,461,462,283,284,283,284,283,284,283,284,283,284,283,455,456,361,362,364,363,364,365,366,0,0,0,
0,0,0,0,0,0,0,441,442,253,254,253,254,253,254,253,254,253,254,253,369,370,363,392,394,393,394,395,363,363,363,363,
0,0,0,0,0,0,0,471,472,283,284,283,284,283,284,283,284,283,284,283,399,400,393,398,454,454,453,399,393,393,393,393,
0,0,0,0,0,1465,1466,451,452,253,254,253,254,253,254,253,254,253,254,253,454,453,429,430,484,483,427,428,453,454,453,454,
0,0,0,0,0,1495,1496,481,482,493,494,427,428,283,284,283,284,283,284,283,253,254,459,460,0,0,481,482,483,484,483,484,
0,0,0,0,0,0,0,0,0,0,0,457,458,253,254,253,254,253,254,253,283,284,465,466,0,0,0,0,0,0,0,0,
0,0,0,0,0,0,0,1643,1644,0,1643,0,472,473,253,254,253,254,253,254,253,254,435,436,0,0,0,0,0,0,0,0,
0,0,0,0,0,0,0,1673,1674,0,0,0,502,503,437,438,253,254,253,439,440,494,495,0,0,0,0,0,0,0,0,0,
0,0,0,0,0,0,0,0,0,0,0,0,0,0,467,468,283,284,283,469,470,0,0,0,0,0,0,0,0,0,0,0,
0,0,0,0,0,0,0,0,0,0,0,0,1465,1466,491,492,493,503,504,505,496,1643,1644,0,0,0,0,0,0,0,0,0,
0,0,0,0,0,0,0,0,0,0,0,0,1495,1496,0,0,0,0,0,0,0,0,0,0,0,0,0,0,0,0,0,0,
0,0,0,0,0,0,0,0,0,0,0,0,0,0,0,0,0,0,0,0,0,0,0,0,0,0,0,0,0,0,0,0,
0,0,0,0,0,0,0,0,0,0,0,0,0,0,0,0,0,0,0,0,0,0,0,0,0,0,0,0,0,0,0,0
</data>
 </layer>
 <layer id="3" name="plants" width="32" height="18">
  <data encoding="csv">
0,0,0,0,0,0,0,0,1561,1562,0,0,0,0,0,0,1587,1588,0,0,0,0,0,0,0,0,0,0,0,0,0,0,
0,0,0,0,0,0,0,0,1591,1592,0,0,0,0,0,0,1617,1618,0,0,0,1525,1526,0,0,0,0,0,0,0,0,0,
0,0,0,0,0,0,1581,1582,0,0,0,0,0,0,0,0,0,0,0,0,0,1555,1556,0,0,0,1621,1622,0,0,0,0,
0,0,0,0,0,0,1611,1612,0,0,0,0,0,0,0,0,0,0,0,0,0,1519,1520,0,0,0,1651,1652,0,0,0,0,
0,0,1561,1562,0,0,0,0,0,0,0,0,0,0,0,0,0,0,0,0,0,1549,1550,0,0,0,0,0,0,0,0,0,
0,0,1591,1592,0,0,0,0,0,0,0,0,0,0,0,0,0,0,0,0,0,0,0,0,0,0,0,0,0,0,0,0,
0,0,0,0,0,0,0,0,0,0,0,0,0,0,0,0,0,0,0,0,0,0,0,0,0,0,0,0,0,0,0,0,
0,0,0,0,0,0,0,0,0,0,0,0,0,0,0,0,0,0,0,0,0,0,0,0,0,0,0,0,0,0,0,0,
0,0,0,0,0,0,0,0,0,0,0,0,0,0,0,0,0,0,0,0,0,0,0,0,0,1587,1588,0,0,0,0,0,
0,0,0,0,0,0,0,0,0,0,0,0,0,0,0,0,0,0,0,0,0,0,0,1465,1466,1617,1618,0,0,0,0,0,
0,0,0,0,0,0,0,0,0,1519,1520,0,0,0,0,0,0,0,0,0,0,0,0,1495,1496,0,0,0,0,0,0,0,
0,0,0,0,0,0,0,0,0,1549,1550,0,0,0,0,0,0,0,0,0,0,0,0,0,0,0,0,0,1621,1622,0,0,
0,0,0,0,0,0,0,0,0,0,0,0,0,0,0,0,0,0,0,0,0,0,0,0,0,0,0,0,1651,1652,0,0,
0,0,0,0,0,0,0,0,0,0,1525,1526,0,0,0,0,0,0,0,0,0,0,0,0,0,0,0,0,0,0,0,0,
0,0,1621,1622,0,0,0,0,0,0,1555,1556,0,0,0,0,0,0,0,0,0,0,0,0,1561,1562,0,0,0,0,0,0,
0,0,1651,1652,0,0,0,0,0,0,0,0,0,0,0,1587,1588,0,1581,1582,0,0,0,0,1591,1592,0,0,0,0,0,0,
0,0,0,0,0,0,0,0,0,0,0,0,0,0,0,1617,1618,0,1611,1612,0,0,0,0,0,0,0,0,0,0,0,0,
0,0,0,0,0,0,0,0,0,0,0,0,0,0,0,0,0,0,0,0,0,0,0,0,0,0,0,0,0,0,0,0
</data>
 </layer>
</map>
