<?xml version="1.0" encoding="UTF-8"?>
<map version="1.10" tiledversion="1.10.2" orientation="orthogonal" renderorder="right-down" width="32" height="18" tilewidth="16" tileheight="16" infinite="0" nextlayerid="3" nextobjectid="1">
 <tileset firstgid="1" source="../tiles/1_terrain.tsx"/>
 <tileset firstgid="1441" source="../tiles/3_plants.tsx"/>
 <layer id="1" name="Tile Layer 1" width="32" height="18">
  <data encoding="csv">
63,64,63,64,63,64,63,64,63,64,63,64,63,64,63,64,63,64,63,64,63,64,63,64,63,64,63,64,63,64,63,64,
93,94,93,94,93,94,93,94,93,94,93,94,93,94,93,94,93,94,93,94,93,94,93,94,93,94,93,94,93,94,93,94,
63,64,63,64,63,64,63,64,63,64,63,64,63,64,63,64,63,64,63,64,63,64,63,64,63,64,63,64,63,64,63,64,
93,94,93,94,93,94,93,94,93,94,93,94,93,94,93,94,93,94,93,94,93,94,93,94,93,94,93,94,93,94,93,94,
63,64,63,64,63,64,63,64,63,64,63,64,63,64,63,64,63,64,63,64,63,64,63,64,63,64,63,64,63,64,63,64,
93,94,93,94,93,94,93,94,93,94,93,94,93,94,93,94,93,94,93,94,93,94,93,94,93,94,93,94,93,94,93,94,
63,64,63,64,63,64,63,64,63,64,63,64,63,64,63,64,63,64,63,64,63,64,63,64,63,64,63,64,63,64,63,64,
93,94,93,94,93,94,93,94,93,94,93,94,93,94,93,94,93,94,93,94,93,94,93,94,93,94,93,94,93,94,93,94,
63,64,63,64,63,64,63,64,63,64,63,64,63,64,63,64,63,64,63,64,63,64,63,64,63,64,63,64,63,64,63,64,
63,64,63,64,63,64,63,64,63,64,63,64,63,64,63,64,63,64,63,64,63,64,63,64,63,64,63,64,63,64,63,64,
93,94,93,94,93,94,93,94,93,94,93,94,93,94,93,94,93,94,93,94,93,94,93,94,93,94,93,94,93,94,93,94,
63,64,63,64,63,64,63,64,63,64,63,64,63,64,63,64,63,64,63,64,63,64,63,64,63,64,63,64,63,64,63,64,
93,94,93,94,93,94,93,94,93,94,93,94,93,94,93,94,93,94,93,94,93,94,93,94,93,94,93,94,93,94,93,94,
63,64,63,64,63,64,63,64,63,64,63,64,63,64,63,64,63,64,63,64,63,64,63,64,63,64,63,64,63,64,63,64,
93,94,93,94,93,94,93,94,93,94,93,94,93,94,93,94,93,94,93,94,93,94,93,94,93,94,93,94,93,94,93,94,
63,64,63,64,63,64,63,64,63,64,63,64,63,64,63,64,63,64,63,64,63,64,63,64,63,64,63,64,63,64,63,64,
93,94,93,94,93,94,93,94,93,94,93,94,93,94,93,94,93,94,93,94,93,94,93,94,93,94,93,94,93,94,93,94,
63,64,63,64,63,64,63,64,63,64,63,64,63,64,63,64,63,64,63,64,63,64,63,64,63,64,63,64,63,64,63,64
</data>
 </layer>
 <layer id="2" name="Tile Layer 2" width="32" height="18">
  <data encoding="csv">
0,0,0,0,0,0,0,0,0,0,0,0,0,0,0,0,0,0,0,0,0,0,0,0,0,0,0,0,0,0,0,0,
0,0,0,0,0,0,0,0,0,0,0,0,0,0,0,0,0,0,0,0,0,0,0,1525,1526,0,0,0,0,1585,1586,0,
0,0,0,0,0,0,0,0,0,0,0,0,0,0,0,0,0,0,0,0,0,0,0,1555,1556,0,0,1644,1645,1615,1616,0,
0,0,0,0,0,0,1643,1644,0,0,0,0,0,0,0,0,0,0,0,0,0,0,0,0,0,0,1673,1674,1675,1645,1646,0,
0,0,0,0,1586,0,1673,1674,1644,1645,0,0,0,0,0,0,0,0,0,0,0,0,0,0,0,0,0,0,0,1675,1676,0,
0,0,0,1615,1616,0,0,0,0,1675,0,0,0,0,0,0,0,0,0,0,0,0,0,0,0,0,0,0,0,0,0,0,
0,0,0,1645,1646,0,0,0,0,0,0,0,0,0,0,0,0,0,0,0,0,0,0,1644,1645,1646,0,0,0,0,0,0,
0,0,0,1675,1676,0,0,0,0,0,0,0,0,0,0,0,0,0,0,0,0,0,0,0,1675,0,0,0,0,0,0,0,
0,0,0,0,0,0,0,0,0,0,0,0,0,0,0,0,0,0,0,0,0,0,0,0,0,0,0,0,0,0,0,0,
0,0,0,0,0,0,0,0,0,0,0,0,0,0,0,0,0,0,0,0,0,0,0,0,0,0,0,0,0,0,0,0,
0,0,0,0,0,0,0,0,0,0,0,0,0,0,0,0,0,0,0,0,0,0,0,0,0,0,0,0,0,0,0,0,
0,0,0,0,0,0,0,0,0,0,0,0,0,0,0,0,0,0,0,0,0,0,0,0,0,0,0,0,0,0,0,0,
0,0,0,0,0,0,0,0,0,0,0,0,0,0,0,0,0,0,0,0,0,0,0,0,0,0,0,0,0,0,0,0,
0,0,0,0,0,0,0,0,0,0,0,0,0,0,0,0,0,1465,1466,0,0,0,0,0,0,0,0,0,0,0,0,0,
0,0,0,0,1583,1584,0,0,0,0,0,0,0,0,0,0,0,1495,1496,0,0,0,0,0,0,0,0,0,0,0,0,0,
0,0,0,0,1613,1614,0,1583,1584,0,0,0,0,0,0,0,0,0,0,0,0,1465,1466,0,0,0,0,1643,1644,1645,0,0,
0,0,0,0,0,0,0,1613,1614,0,0,0,0,0,0,0,0,0,1465,1466,0,1495,1496,0,0,0,0,1673,1674,1675,0,0,
0,0,0,0,0,0,0,0,0,0,0,0,0,0,0,0,0,0,1495,1496,0,0,0,0,0,0,0,0,0,0,0,0
</data>
 </layer>
</map>
